src/images/error-emoji.svg

<?xml version="1.0" encoding="UTF-8" standalone="no"?>
<svg
   xmlns:dc="http://purl.org/dc/elements/1.1/"
   xmlns:cc="http://creativecommons.org/ns#"
   xmlns:rdf="http://www.w3.org/1999/02/22-rdf-syntax-ns#"
   xmlns:svg="http://www.w3.org/2000/svg"
   xmlns="http://www.w3.org/2000/svg"
   xmlns:sodipodi="http://sodipodi.sourceforge.net/DTD/sodipodi-0.dtd"
   xmlns:inkscape="http://www.inkscape.org/namespaces/inkscape"
   viewBox="0 0 600 600"
   version="1.1"
   id="svg973"
   sodipodi:docname="errorEmoji.svg"
   width="600"
   height="600"
   inkscape:version="1.0beta2 (2b71d25, 2019-12-03)">
  <metadata
     id="metadata979">
    <rdf:RDF>
      <cc:Work
         rdf:about="">
        <dc:format>image/svg+xml</dc:format>
        <dc:type
           rdf:resource="http://purl.org/dc/dcmitype/StillImage" />
        <dc:title />
      </cc:Work>
    </rdf:RDF>
  </metadata>
  <defs
     id="defs977" />
  <sodipodi:namedview
     pagecolor="#ffffff"
     bordercolor="#666666"
     inkscape:document-rotation="0"
     borderopacity="1"
     objecttolerance="10"
     gridtolerance="10"
     guidetolerance="10"
     inkscape:pageopacity="0"
     inkscape:pageshadow="2"
     inkscape:window-width="1280"
     inkscape:window-height="694"
     id="namedview975"
     showgrid="false"
     inkscape:zoom="0.40133088"
     inkscape:cx="400.67418"
     inkscape:cy="425.51285"
     inkscape:window-x="0"
     inkscape:window-y="23"
     inkscape:window-maximized="0"
     inkscape:current-layer="svg973" />
  <path
     id="path1140"
     style="fill:#dc3545;stroke-width:1.17185;fill-opacity:1"
     d="M 0 300 A 300.00013 300.00011 0 0 0 100 523.60547 L 100 76.394531 A 300.00013 300.00011 0 0 0 0 300 z " />
  <path
     id="path1128"
     style="fill:#fd7e14;stroke-width:1.17185;fill-opacity:1"
     d="M 100 76.394531 L 100 523.60547 A 300.00013 300.00011 0 0 0 200 582.8418 L 200 482.25977 C 189.95574 478.68281 184.16406 470.6375 184.16406 454.46875 C 184.16406 438.33967 189.99462 423.27486 200 410.2832 L 200 302.38867 C 199.94551 302.33632 199.87204 302.32126 199.81836 302.26758 L 166.37695 268.82617 L 132.93555 302.26758 C 130.76409 304.4402 127.91637 305.52539 125.07227 305.52539 C 122.22817 305.52539 119.38043 304.43786 117.20898 302.26758 C 112.86608 297.92702 112.86608 290.88588 117.20898 286.54297 L 150.65039 253.10352 L 117.20898 219.6582 C 112.86608 215.31764 112.86608 208.27846 117.20898 203.93555 C 119.38101 201.7641 122.22655 200.67773 125.07227 200.67773 C 127.91797 200.67773 130.76409 201.7641 132.93555 203.93555 L 166.37695 237.37695 L 199.81836 203.93555 C 199.87204 203.88187 199.94551 203.86681 200 203.81445 L 200 17.158203 A 300.00013 300.00011 0 0 0 100 76.394531 z " />
  <path
     id="path1118"
     style="fill:#fd7e14;stroke-width:1.17185;fill-opacity:1"
     d="M 200 235.20312 L 182.10156 253.10352 L 200 271 L 200 235.20312 z " />
  <path
     id="path1120"
     style="fill:#ffc107;stroke-width:1.17185;fill-opacity:1"
     d="M 200 482.25977 L 200 582.8418 A 300.00013 300.00011 0 0 0 300 600 L 300 478.62305 C 299.99868 478.62305 299.99741 478.62305 299.99609 478.62305 C 264.00029 478.62305 231.82783 486.33127 210.58203 484.43359 C 206.65712 484.0842 203.1351 483.37624 200 482.25977 z " />
  <path
     id="path1114"
     style="fill:#ffc107;stroke-width:1.17185;fill-opacity:1"
     d="M 200 17.158203 L 200 203.81445 C 204.35424 199.63127 211.25256 199.64633 215.54297 203.93555 C 219.88587 208.27611 219.88587 215.3153 215.54297 219.6582 L 200 235.20312 L 200 271 L 215.54297 286.54297 C 219.88587 290.88353 219.88587 297.92468 215.54297 302.26758 C 213.37157 304.4402 210.52689 305.52539 207.68164 305.52539 C 204.90557 305.52539 202.14991 304.45408 200 302.38867 L 200 410.2832 C 220.08673 384.20123 257.29548 366.62749 299.99805 366.62695 L 300 366.62695 L 300 0 A 300.00013 300.00011 0 0 0 200 17.158203 z " />
  <path
     id="path1094"
     style="fill:#007bff;stroke-width:1.17185;fill-opacity:1"
     d="M 400 17.158203 L 400 203.81836 C 400.05201 203.86841 400.12256 203.88233 400.17383 203.93359 L 433.61523 237.375 L 467.05664 203.93359 C 471.39834 199.59069 478.4352 199.59069 482.7793 203.93359 C 487.121 208.2765 487.121 215.31569 482.7793 219.65625 L 449.33789 253.09961 L 482.7793 286.54102 C 487.1222 290.88158 487.1222 297.92272 482.7793 302.26562 C 480.6078 304.43824 477.76327 305.52344 474.91797 305.52344 C 472.07157 305.52344 469.22609 304.43707 467.05469 302.26562 L 433.61328 268.82422 L 400.16992 302.26562 C 400.11971 302.31587 400.05093 302.32983 400 302.37891 L 400 410.28906 C 410.0024 423.27948 415.83008 438.34197 415.83008 454.46875 C 415.83008 470.63451 410.04183 478.68189 400 482.25977 L 400 582.8418 A 300.00013 300.00011 0 0 0 500 523.60547 L 500 76.394531 A 300.00013 300.00011 0 0 0 400 17.158203 z " />
  <path
     id="path1106"
     style="fill:#28a745;stroke-width:1.17185;fill-opacity:1"
     d="M 300 478.62305 L 300 600 A 300.00013 300.00011 0 0 0 400 582.8418 L 400 482.25977 C 396.86333 483.37735 393.33955 484.08411 389.41211 484.43359 C 368.16719 486.33078 335.9955 478.62361 300 478.62305 z " />
  <path
     id="path1102"
     style="fill:#28a745;stroke-width:1.17185;fill-opacity:1"
     d="M 300 0 L 300 366.62695 C 342.7066 366.62749 379.91532 384.20496 400 410.29102 L 400 302.37891 C 397.84872 304.45211 395.088 305.52344 392.30859 305.52344 C 389.46449 305.52344 386.61681 304.4359 384.44531 302.26562 C 380.10241 297.92507 380.10241 290.88393 384.44531 286.54102 L 400 270.98633 L 400 235.21094 L 384.44531 219.65625 C 380.10241 215.31569 380.10241 208.2765 384.44531 203.93359 C 386.61681 201.76214 389.46309 200.67578 392.30859 200.67578 L 392.31055 200.67578 C 395.08887 200.67578 397.84908 201.74824 400 203.81836 L 400 17.158203 A 300.00013 300.00011 0 0 0 300 0 z " />
  <path
     id="path1098"
     style="fill:#007bff;stroke-width:1.17185;fill-opacity:1"
     d="M 400 270.98633 L 417.88672 253.09961 L 400 235.21094 L 400 270.98633 z " />
  <path
     id="path1088"
     style="fill:#6f42c1;stroke-width:1.17185;fill-opacity:1"
     d="M 500 76.394531 L 500 523.60547 A 300.00013 300.00011 0 0 0 600 300 A 300.00013 300.00011 0 0 0 500 76.394531 z " />
  <path
     id="circle291-8"
     style="fill:#2ba5f7;stroke-width:1.17185"
     d="M 299.04688 454.49414 C 299.36212 454.8325 299.68296 455.16216 299.99414 455.50977 L 299.99414 455.50586 C 299.68342 455.15882 299.36245 454.83171 299.04688 454.49414 z " />
  <path
     id="circle291-5"
     style="fill:#2ba5f7;stroke-width:1.17185"
     d="M 299.04688 454.49414 C 299.36212 454.8325 299.68296 455.16216 299.99414 455.50977 L 299.99414 455.50586 C 299.68342 455.15882 299.36245 454.83171 299.04688 454.49414 z " />
  <path
     id="path1136"
     style="fill:#2ba5f7;stroke-width:1.17185"
     d="M 298.06836 453.44336 L 298.06641 453.44531 C 298.39775 453.78626 298.71996 454.14445 299.04688 454.49414 C 298.72095 454.14432 298.39958 453.78418 298.06836 453.44336 z " />
  <path
     id="circle291-0"
     style="fill:#2ba5f7;stroke-width:1.17185"
     d="M 299.04688 454.49414 C 299.36212 454.8325 299.68296 455.16216 299.99414 455.50977 L 299.99414 455.50586 C 299.68342 455.15882 299.36245 454.83171 299.04688 454.49414 z " />
  <path
     id="path1124"
     style="fill:#2ba5f7;stroke-width:1.17185"
     d="M 298.06836 453.44336 L 298.06641 453.44531 C 298.39775 453.78626 298.71996 454.14445 299.04688 454.49414 C 298.72095 454.14432 298.39958 453.78418 298.06836 453.44336 z " />
  <path
     id="circle291-3"
     style="fill:#2ba5f7;stroke-width:1.17185"
     d="M 299.04688 454.49414 C 299.36197 454.83234 299.68116 455.16233 299.99219 455.50977 L 299.99219 455.50586 C 299.68162 455.15899 299.36229 454.83155 299.04688 454.49414 z " />
  <path
     id="circle291-2"
     style="fill:#2ba5f7;stroke-width:1.17185"
     d="M 299.04688 454.49414 C 299.36212 454.8325 299.68296 455.16216 299.99414 455.50977 L 299.99414 455.50586 C 299.68342 455.15882 299.36245 454.83171 299.04688 454.49414 z " />
  <path
     id="circle291"
     style="fill:#2ba5f7;stroke-width:1.17185"
     d="M 299.04688 454.49414 C 299.36212 454.8325 299.68296 455.16216 299.99414 455.50977 L 299.99414 455.50586 C 299.68342 455.15882 299.36245 454.83171 299.04688 454.49414 z " />
</svg>

<svg viewBox="0 0 600 600" xmlns="http://www.w3.org/2000/svg"><path d="M0 300a300 300 0 00100 223.61V76.4A300 300 0 000 300.01z" fill="#dc3545"/><path d="M100 76.395v447.21a300 300 0 00100 59.236v-100.58c-10.044-3.577-15.836-11.622-15.836-27.791 0-16.129 5.83-31.194 15.836-44.186v-107.89c-.054-.052-.128-.067-.182-.121l-33.44-33.441-33.442 33.44c-2.171 2.174-5.019 3.259-7.863 3.259s-5.692-1.088-7.863-3.258c-4.343-4.34-4.343-11.382 0-15.725l33.44-33.44-33.44-33.444c-4.343-4.34-4.343-11.38 0-15.723a11.088 11.088 0 017.863-3.258c2.846 0 5.692 1.087 7.863 3.258l33.441 33.44 33.441-33.44c.054-.054.128-.069.182-.121V17.16a300 300 0 00-100 59.236z" fill="#fd7e14"/><path d="M200 235.2l-17.898 17.9L200 270.996v-35.797z" fill="#fd7e14"/><path d="M200 482.26v100.58a300 300 0 00100 17.158v-121.38h-.004c-35.996 0-68.168 7.708-89.414 5.81-3.925-.349-7.447-1.057-10.582-2.173zM200 17.158v186.66c4.354-4.183 11.253-4.168 15.543.121 4.343 4.34 4.343 11.38 0 15.723L200 235.207v35.797l15.543 15.543c4.343 4.34 4.343 11.382 0 15.725a11.078 11.078 0 01-7.861 3.258c-2.776 0-5.532-1.071-7.682-3.137v107.89c20.087-26.082 57.295-43.656 99.998-43.656H300V-.003a300 300 0 00-100 17.158z" fill="#ffc107"/><path d="M400 17.158v186.66c.052.05.123.064.174.115l33.44 33.441 33.442-33.44c4.342-4.344 11.379-4.344 15.723 0 4.342 4.342 4.342 11.381 0 15.722L449.338 253.1l33.44 33.441c4.344 4.34 4.344 11.382 0 15.725a11.078 11.078 0 01-7.86 3.258 11.086 11.086 0 01-7.864-3.258l-33.44-33.44-33.444 33.44c-.05.05-.119.064-.17.114v107.91c10.002 12.99 15.83 28.053 15.83 44.18 0 16.166-5.788 24.213-15.83 27.79v100.58a300 300 0 00100-59.235V76.394a300 300 0 00-100-59.236z" fill="#007bff"/><path d="M300 478.62V600a300 300 0 00100-17.158v-100.58c-3.137 1.118-6.66 1.824-10.588 2.174-21.245 1.897-53.417-5.81-89.412-5.81zM300 0v366.63c42.707 0 79.915 17.578 100 43.664v-107.91c-2.151 2.073-4.912 3.144-7.691 3.144a11.094 11.094 0 01-7.864-3.257c-4.343-4.34-4.343-11.382 0-15.725L400 270.99v-35.775l-15.555-15.555c-4.343-4.34-4.343-11.38 0-15.723a11.087 11.087 0 017.864-3.258h.002c2.778 0 5.538 1.072 7.689 3.142V17.162A300 300 0 00300 .004z" fill="#28a745"/><path d="M400 270.99l17.887-17.887L400 235.214v35.775z" fill="#007bff"/><path d="M500 76.395v447.21a300 300 0 00100-223.61 300 300 0 00-100-223.61z" fill="#6f42c1"/><path d="M299.05 454.49c.315.338.636.668.947 1.016v-.004c-.31-.347-.631-.674-.947-1.012z" fill="#2ba5f7"/><path d="M299.05 454.49c.315.338.636.668.947 1.016v-.004c-.31-.347-.631-.674-.947-1.012zM298.07 453.44l-.002.002c.331.34.654.7.98 1.049-.325-.35-.647-.71-.978-1.051z" fill="#2ba5f7"/><path d="M299.05 454.49c.315.338.636.668.947 1.016v-.004c-.31-.347-.631-.674-.947-1.012zM298.07 453.44l-.002.002c.331.34.654.7.98 1.049-.325-.35-.647-.71-.978-1.051z" fill="#2ba5f7"/><path d="M299.05 454.49c.315.338.634.668.945 1.016v-.004c-.31-.347-.63-.675-.945-1.012z" fill="#2ba5f7"/><path d="M299.05 454.49c.315.338.636.668.947 1.016v-.004c-.31-.347-.631-.674-.947-1.012z" fill="#2ba5f7"/><path d="M299.05 454.49c.315.338.636.668.947 1.016v-.004c-.31-.347-.631-.674-.947-1.012z" fill="#2ba5f7"/></svg>
